images/selenium-logo.svg

<svg xmlns="http://www.w3.org/2000/svg" xmlns:xlink="http://www.w3.org/1999/xlink" width="80" zoomAndPan="magnify" viewBox="0 0 60 60" height="80" preserveAspectRatio="xMidYMid meet" version="1.0"><defs><clipPath id="c361ef107d"><path d="M 0 22.660156 L 14 22.660156 L 14 37.660156 L 0 37.660156 Z M 0 22.660156 " clip-rule="nonzero"/></clipPath></defs><path fill="#01a71c" d="M 19.886719 34.285156 C 19.515625 34.28125 19.148438 34.253906 18.78125 34.199219 C 18.382812 34.140625 17.992188 34.066406 17.601562 33.964844 L 17.601562 33.351562 C 17.988281 33.453125 18.375 33.53125 18.769531 33.585938 C 19.125 33.640625 19.484375 33.671875 19.84375 33.675781 C 20.355469 33.707031 20.828125 33.582031 21.261719 33.304688 C 21.609375 33.042969 21.773438 32.691406 21.753906 32.253906 C 21.773438 31.785156 21.597656 31.421875 21.21875 31.15625 C 21.046875 31.027344 20.859375 30.925781 20.664062 30.84375 C 20.4375 30.757812 20.199219 30.679688 19.945312 30.601562 C 19.601562 30.5 19.265625 30.375 18.941406 30.21875 C 18.691406 30.101562 18.464844 29.949219 18.261719 29.757812 C 18.085938 29.589844 17.957031 29.394531 17.875 29.167969 C 17.785156 28.917969 17.746094 28.664062 17.75 28.402344 C 17.746094 28.105469 17.804688 27.820312 17.925781 27.550781 C 18.042969 27.292969 18.210938 27.074219 18.429688 26.890625 C 18.660156 26.691406 18.921875 26.542969 19.210938 26.453125 C 19.546875 26.355469 19.886719 26.3125 20.234375 26.324219 C 20.875 26.335938 21.507812 26.421875 22.132812 26.574219 L 22.132812 27.199219 C 21.816406 27.117188 21.496094 27.050781 21.171875 27.007812 C 20.886719 26.964844 20.597656 26.941406 20.308594 26.941406 C 19.824219 26.914062 19.378906 27.046875 18.984375 27.335938 C 18.625 27.597656 18.449219 27.953125 18.457031 28.402344 C 18.457031 28.585938 18.484375 28.761719 18.550781 28.933594 C 18.613281 29.105469 18.714844 29.253906 18.851562 29.375 C 19.015625 29.519531 19.199219 29.636719 19.398438 29.722656 C 19.675781 29.84375 19.964844 29.941406 20.257812 30.019531 C 20.578125 30.117188 20.871094 30.222656 21.144531 30.332031 C 21.402344 30.433594 21.640625 30.570312 21.855469 30.746094 C 22.058594 30.914062 22.214844 31.117188 22.328125 31.355469 C 22.453125 31.632812 22.511719 31.929688 22.5 32.234375 C 22.535156 32.863281 22.3125 33.375 21.828125 33.765625 C 21.242188 34.167969 20.59375 34.339844 19.886719 34.285156 Z M 19.886719 34.285156 " fill-opacity="1" fill-rule="nonzero"/><path fill="#01a71c" d="M 26.09375 34.261719 C 25.375 34.316406 24.761719 34.078125 24.253906 33.550781 C 23.785156 32.941406 23.578125 32.253906 23.625 31.480469 C 23.574219 30.675781 23.78125 29.941406 24.238281 29.28125 C 24.707031 28.71875 25.300781 28.460938 26.023438 28.511719 C 26.621094 28.46875 27.121094 28.679688 27.515625 29.140625 C 27.894531 29.683594 28.0625 30.289062 28.023438 30.953125 C 28.023438 31.113281 28.023438 31.246094 28.023438 31.359375 C 28.019531 31.453125 28.007812 31.546875 27.984375 31.640625 L 24.296875 31.640625 C 24.28125 32.214844 24.449219 32.730469 24.800781 33.179688 C 25.183594 33.554688 25.644531 33.722656 26.171875 33.683594 C 26.4375 33.679688 26.699219 33.65625 26.957031 33.609375 C 27.238281 33.554688 27.515625 33.480469 27.789062 33.378906 L 27.839844 33.9375 C 27.558594 34.046875 27.273438 34.128906 26.976562 34.179688 C 26.6875 34.234375 26.390625 34.261719 26.09375 34.261719 Z M 26 29.03125 C 24.945312 29.03125 24.378906 29.726562 24.304688 31.117188 L 27.382812 31.117188 C 27.425781 30.550781 27.3125 30.019531 27.046875 29.519531 C 26.785156 29.160156 26.4375 28.996094 26 29.03125 Z M 26 29.03125 " fill-opacity="1" fill-rule="nonzero"/><path fill="#01a71c" d="M 29.546875 25.761719 L 30.226562 25.761719 L 30.226562 34.171875 L 29.546875 34.171875 Z M 29.546875 25.761719 " fill-opacity="1" fill-rule="nonzero"/><path fill="#01a71c" d="M 34.25 34.261719 C 33.527344 34.316406 32.914062 34.078125 32.40625 33.550781 C 31.941406 32.941406 31.734375 32.253906 31.78125 31.480469 C 31.734375 30.675781 31.9375 29.941406 32.398438 29.28125 C 32.867188 28.71875 33.460938 28.460938 34.179688 28.511719 C 34.777344 28.46875 35.277344 28.679688 35.671875 29.140625 C 36.042969 29.6875 36.203125 30.292969 36.160156 30.953125 C 36.160156 31.113281 36.160156 31.246094 36.160156 31.359375 C 36.15625 31.453125 36.144531 31.546875 36.121094 31.640625 L 32.449219 31.640625 C 32.433594 32.214844 32.601562 32.730469 32.953125 33.179688 C 33.339844 33.558594 33.796875 33.722656 34.332031 33.683594 C 34.59375 33.679688 34.855469 33.65625 35.113281 33.609375 C 35.398438 33.554688 35.675781 33.480469 35.945312 33.378906 L 35.996094 33.9375 C 35.71875 34.046875 35.429688 34.128906 35.136719 34.179688 C 34.84375 34.234375 34.546875 34.261719 34.25 34.261719 Z M 34.160156 29.03125 C 33.101562 29.03125 32.535156 29.726562 32.460938 31.117188 L 35.539062 31.117188 C 35.582031 30.550781 35.472656 30.019531 35.203125 29.519531 C 34.945312 29.160156 34.59375 28.996094 34.160156 29.03125 Z M 34.160156 29.03125 " fill-opacity="1" fill-rule="nonzero"/><path fill="#01a71c" d="M 37.671875 28.5625 L 38.238281 28.5625 L 38.289062 29.21875 L 38.34375 29.21875 C 38.613281 29.089844 38.859375 28.972656 39.082031 28.875 C 39.308594 28.78125 39.511719 28.699219 39.699219 28.640625 C 39.867188 28.582031 40.039062 28.535156 40.214844 28.503906 C 40.371094 28.476562 40.53125 28.460938 40.6875 28.464844 C 41.097656 28.429688 41.453125 28.558594 41.757812 28.839844 C 42.03125 29.175781 42.148438 29.5625 42.113281 30 L 42.113281 34.183594 L 41.429688 34.183594 L 41.429688 30.222656 C 41.457031 29.898438 41.378906 29.605469 41.191406 29.34375 C 40.988281 29.144531 40.746094 29.054688 40.464844 29.078125 C 40.132812 29.085938 39.8125 29.148438 39.5 29.257812 C 39.105469 29.394531 38.722656 29.558594 38.351562 29.753906 L 38.351562 34.152344 L 37.671875 34.152344 Z M 37.671875 28.5625 " fill-opacity="1" fill-rule="nonzero"/><path fill="#01a71c" d="M 44.230469 27.308594 C 44.105469 27.328125 43.992188 27.292969 43.898438 27.203125 C 43.804688 27.113281 43.765625 27 43.773438 26.871094 C 43.773438 26.742188 43.820312 26.632812 43.910156 26.539062 C 43.996094 26.449219 44.105469 26.402344 44.230469 26.402344 C 44.359375 26.402344 44.464844 26.449219 44.554688 26.539062 C 44.644531 26.632812 44.6875 26.742188 44.6875 26.871094 C 44.699219 27 44.65625 27.113281 44.5625 27.203125 C 44.46875 27.292969 44.359375 27.328125 44.230469 27.308594 Z M 43.886719 28.5625 L 44.566406 28.5625 L 44.566406 34.171875 L 43.886719 34.171875 Z M 43.886719 28.5625 " fill-opacity="1" fill-rule="nonzero"/><path fill="#01a71c" d="M 47.703125 34.273438 C 46.800781 34.273438 46.347656 33.761719 46.347656 32.746094 L 46.347656 28.5625 L 47.03125 28.5625 L 47.03125 32.523438 C 47 32.84375 47.070312 33.136719 47.238281 33.40625 C 47.421875 33.609375 47.648438 33.695312 47.921875 33.667969 C 48.289062 33.667969 48.644531 33.597656 48.988281 33.457031 C 49.347656 33.316406 49.71875 33.148438 50.101562 32.957031 L 50.101562 28.5625 L 50.796875 28.5625 L 50.796875 34.171875 L 50.226562 34.171875 L 50.175781 33.476562 L 50.136719 33.476562 L 49.394531 33.832031 C 49.179688 33.933594 48.984375 34.015625 48.800781 34.082031 C 48.625 34.144531 48.449219 34.195312 48.269531 34.226562 C 48.082031 34.261719 47.890625 34.273438 47.703125 34.273438 Z M 47.703125 34.273438 " fill-opacity="1" fill-rule="nonzero"/><path fill="#01a71c" d="M 52.597656 28.5625 L 53.15625 28.5625 L 53.214844 29.21875 L 53.253906 29.21875 C 53.609375 29 53.980469 28.808594 54.363281 28.644531 C 54.640625 28.527344 54.929688 28.46875 55.226562 28.464844 C 55.503906 28.425781 55.761719 28.480469 56.003906 28.625 C 56.242188 28.769531 56.414062 28.976562 56.515625 29.242188 L 56.570312 29.242188 C 56.796875 29.09375 57.007812 28.972656 57.191406 28.875 C 57.363281 28.789062 57.535156 28.710938 57.710938 28.640625 C 57.847656 28.582031 57.992188 28.535156 58.140625 28.503906 C 58.28125 28.476562 58.425781 28.460938 58.570312 28.464844 C 58.972656 28.433594 59.324219 28.554688 59.625 28.832031 C 59.898438 29.167969 60.019531 29.554688 59.984375 29.988281 L 59.984375 34.175781 L 59.3125 34.175781 L 59.3125 30.214844 C 59.34375 29.890625 59.261719 29.597656 59.074219 29.335938 C 58.871094 29.136719 58.628906 29.050781 58.347656 29.074219 C 58.082031 29.082031 57.828125 29.140625 57.582031 29.242188 C 57.257812 29.375 56.949219 29.535156 56.652344 29.722656 L 56.652344 34.167969 L 55.960938 34.167969 L 55.960938 30.207031 C 55.992188 29.882812 55.914062 29.589844 55.726562 29.324219 C 55.519531 29.128906 55.277344 29.042969 54.996094 29.066406 C 54.71875 29.074219 54.453125 29.132812 54.195312 29.242188 C 53.875 29.375 53.570312 29.535156 53.277344 29.722656 L 53.277344 34.171875 L 52.597656 34.171875 Z M 52.597656 28.5625 " fill-opacity="1" fill-rule="nonzero"/><path fill="#01a71c" d="M 9.234375 32.148438 C 8.953125 32.136719 8.710938 32.226562 8.5 32.414062 C 8.289062 32.601562 8.167969 32.835938 8.136719 33.121094 C 8.128906 33.148438 8.140625 33.164062 8.171875 33.164062 L 10.300781 33.164062 C 10.328125 33.164062 10.339844 33.152344 10.335938 33.125 C 10.324219 32.984375 10.289062 32.851562 10.226562 32.726562 C 10.167969 32.601562 10.085938 32.496094 9.980469 32.402344 C 9.878906 32.3125 9.761719 32.246094 9.632812 32.199219 C 9.503906 32.15625 9.371094 32.136719 9.234375 32.148438 Z M 9.234375 32.148438 " fill-opacity="1" fill-rule="nonzero"/><g clip-path="url(#c361ef107d)"><path fill="#01a71c" d="M 13.800781 24.839844 L 9.28125 30.03125 C 9.214844 30.105469 9.144531 30.105469 9.078125 30.03125 L 6.769531 27.597656 C 6.726562 27.539062 6.726562 27.480469 6.769531 27.421875 L 7.535156 26.421875 C 7.5625 26.382812 7.597656 26.363281 7.644531 26.363281 C 7.691406 26.363281 7.730469 26.382812 7.757812 26.421875 L 9.046875 27.882812 C 9.117188 27.96875 9.1875 27.96875 9.257812 27.882812 L 12.859375 22.839844 C 12.878906 22.804688 12.882812 22.773438 12.867188 22.734375 C 12.847656 22.699219 12.820312 22.683594 12.78125 22.679688 L 0.109375 22.679688 C 0.0351562 22.679688 0 22.714844 0 22.789062 L 0 37.535156 C 0 37.605469 0.0351562 37.644531 0.109375 37.644531 L 13.882812 37.644531 C 13.953125 37.644531 13.992188 37.605469 13.992188 37.535156 L 13.992188 24.90625 C 14.011719 24.84375 13.992188 24.800781 13.929688 24.777344 C 13.863281 24.753906 13.824219 24.777344 13.800781 24.839844 Z M 3.898438 36.003906 C 2.960938 36.050781 2.136719 35.757812 1.429688 35.121094 C 1.378906 35.0625 1.378906 35 1.429688 34.941406 L 1.96875 34.171875 C 2.011719 34.089844 2.074219 34.074219 2.152344 34.121094 C 2.664062 34.605469 3.265625 34.847656 3.960938 34.84375 C 4.667969 34.84375 5.011719 34.511719 5.011719 34.15625 C 5.011719 33.066406 1.53125 33.816406 1.53125 31.492188 C 1.53125 30.464844 2.394531 29.613281 3.824219 29.613281 C 4.671875 29.582031 5.425781 29.839844 6.082031 30.386719 C 6.140625 30.449219 6.140625 30.511719 6.082031 30.574219 L 5.554688 31.328125 C 5.496094 31.40625 5.433594 31.414062 5.359375 31.351562 C 4.875 30.957031 4.324219 30.761719 3.707031 30.769531 C 3.15625 30.769531 2.84375 31.019531 2.84375 31.390625 C 2.84375 32.371094 6.316406 31.714844 6.316406 34.03125 C 6.316406 35.148438 5.527344 36.003906 3.894531 36.003906 Z M 11.484375 33.859375 C 11.488281 33.945312 11.449219 33.984375 11.363281 33.980469 L 8.179688 33.980469 C 8.152344 33.984375 8.140625 34 8.144531 34.027344 C 8.199219 34.339844 8.347656 34.597656 8.597656 34.792969 C 8.84375 34.988281 9.125 35.074219 9.4375 35.046875 C 9.839844 35.039062 10.207031 34.914062 10.539062 34.675781 C 10.605469 34.621094 10.664062 34.628906 10.710938 34.703125 L 11.097656 35.28125 C 11.136719 35.34375 11.128906 35.398438 11.070312 35.441406 C 10.546875 35.835938 9.957031 36.023438 9.308594 36.007812 C 8.988281 36.023438 8.675781 35.976562 8.378906 35.859375 C 8.078125 35.746094 7.816406 35.574219 7.585938 35.34375 C 7.359375 35.113281 7.183594 34.847656 7.066406 34.542969 C 6.949219 34.238281 6.898438 33.921875 6.910156 33.59375 C 6.898438 33.277344 6.953125 32.96875 7.066406 32.671875 C 7.183594 32.375 7.347656 32.113281 7.570312 31.886719 C 7.789062 31.65625 8.042969 31.484375 8.332031 31.363281 C 8.621094 31.242188 8.921875 31.1875 9.234375 31.191406 C 10.574219 31.191406 11.480469 32.21875 11.480469 33.71875 Z M 11.484375 33.859375 " fill-opacity="1" fill-rule="nonzero"/></g></svg>

<svg xmlns="http://www.w3.org/2000/svg" width="80" zoomAndPan="magnify" viewBox="0 0 60 60" height="80" preserveAspectRatio="xMidYMid meet" xmlns:v="https://vecta.io/nano"><defs><clipPath id="A"><path d="M0 22.66h14v15H0zm0 0" clip-rule="nonzero"/></clipPath></defs><path d="M19.887 34.285c-.371-.004-.738-.031-1.105-.086a11.05 11.05 0 0 1-1.18-.234v-.613a9.97 9.97 0 0 0 1.168.234 7.58 7.58 0 0 0 1.074.09 2.31 2.31 0 0 0 1.418-.371c.348-.262.512-.613.492-1.051.02-.469-.156-.832-.535-1.098a2.59 2.59 0 0 0-.555-.312l-.719-.242a6.64 6.64 0 0 1-1.004-.383 2.58 2.58 0 0 1-.68-.461 1.52 1.52 0 0 1-.387-.59 2.14 2.14 0 0 1-.125-.766c-.004-.297.055-.582.176-.852a1.85 1.85 0 0 1 .504-.66c.23-.199.492-.348.781-.437.336-.098.676-.141 1.023-.129.641.012 1.273.098 1.898.25v.625a8.04 8.04 0 0 0-.961-.191 5.8 5.8 0 0 0-.863-.066 1.99 1.99 0 0 0-1.324.395 1.22 1.22 0 0 0-.527 1.066 1.45 1.45 0 0 0 .094.531c.063.172.164.32.301.441a2.06 2.06 0 0 0 .547.348 6.01 6.01 0 0 0 .859.297l.887.313c.258.102.496.238.711.414a1.76 1.76 0 0 1 .473.609 1.94 1.94 0 0 1 .172.879c.035.629-.187 1.141-.672 1.531a2.94 2.94 0 0 1-1.941.52zm6.207-.023a2.21 2.21 0 0 1-1.84-.711c-.469-.609-.676-1.297-.629-2.07a3.39 3.39 0 0 1 .613-2.199 2.02 2.02 0 0 1 1.785-.77 1.71 1.71 0 0 1 1.492.629c.379.543.547 1.148.508 1.813v.406a1.42 1.42 0 0 1-.039.281h-3.687a2.32 2.32 0 0 0 .504 1.539c.383.375.844.543 1.371.504.266-.004.527-.027.785-.074.281-.055.559-.129.832-.23l.051.559a4.43 4.43 0 0 1-.863.242 4.76 4.76 0 0 1-.883.082zM26 29.031c-1.055 0-1.621.695-1.695 2.086h3.078a2.87 2.87 0 0 0-.336-1.598A1.11 1.11 0 0 0 26 29.031zm3.547-3.269h.68v8.41h-.68zm4.703 8.5c-.723.055-1.336-.184-1.844-.711a3 3 0 0 1-.625-2.07 3.39 3.39 0 0 1 .617-2.199 2.02 2.02 0 0 1 1.781-.77 1.71 1.71 0 0 1 1.492.629c.371.547.531 1.152.488 1.813v.406a1.42 1.42 0 0 1-.039.281h-3.672a2.32 2.32 0 0 0 .504 1.539 1.7 1.7 0 0 0 1.379.504 4.76 4.76 0 0 0 .781-.074 5.12 5.12 0 0 0 .832-.23l.051.559c-.277.109-.566.191-.859.242a5.18 5.18 0 0 1-.887.082zm-.09-5.23c-1.059 0-1.625.695-1.699 2.086h3.078a2.84 2.84 0 0 0-.336-1.598c-.258-.359-.609-.523-1.043-.488zm3.512-.469h.566l.051.656h.055l.738-.344.617-.234a3.34 3.34 0 0 1 .516-.137 2.43 2.43 0 0 1 .473-.039c.41-.035.766.094 1.07.375a1.57 1.57 0 0 1 .355 1.16v4.184h-.684v-3.961c.027-.324-.051-.617-.238-.879a.89.89 0 0 0-.727-.266c-.332.008-.652.07-.965.18a8.28 8.28 0 0 0-1.148.496v4.398h-.68zm6.558-1.254c-.125.02-.238-.016-.332-.105s-.133-.203-.125-.332c0-.129.047-.238.137-.332a.43.43 0 0 1 .32-.137.44.44 0 0 1 .324.137.46.46 0 0 1 .133.332c.012.129-.031.242-.125.332a.37.37 0 0 1-.332.105zm-.344 1.254h.68v5.609h-.68zm3.817 5.71c-.902 0-1.355-.512-1.355-1.527v-4.184h.684v3.961a1.37 1.37 0 0 0 .207.883.77.77 0 0 0 .684.262 2.79 2.79 0 0 0 1.066-.211l1.113-.5v-4.395h.695v5.609h-.57l-.051-.695h-.039l-.742.355-.594.25c-.176.063-.352.113-.531.145a3.08 3.08 0 0 1-.566.047zm4.895-5.71h.559l.059.656h.039a8.52 8.52 0 0 1 1.109-.574 2.28 2.28 0 0 1 .863-.18 1.16 1.16 0 0 1 .777.16c.238.145.41.352.512.617h.055l.621-.367.52-.234c.137-.059.281-.105.43-.137.141-.027.285-.043.43-.039a1.34 1.34 0 0 1 1.055.367 1.57 1.57 0 0 1 .359 1.156v4.188h-.672v-3.961a1.26 1.26 0 0 0-.238-.879.89.89 0 0 0-.727-.262 2.15 2.15 0 0 0-.766.168 6.06 6.06 0 0 0-.93.48v4.445h-.691v-3.961a1.27 1.27 0 0 0-.234-.883.91.91 0 0 0-.73-.258 2.18 2.18 0 0 0-.801.176c-.32.133-.625.293-.918.48v4.449h-.68zM9.234 32.148a1 1 0 0 0-.734.266 1.07 1.07 0 0 0-.363.707c-.008.027.004.043.035.043h2.129c.027 0 .039-.012.035-.039a1.08 1.08 0 0 0-.109-.398c-.059-.125-.141-.23-.246-.324a1.07 1.07 0 0 0-.348-.203c-.129-.043-.262-.062-.398-.051zm0 0" fill="#01a71c"/><g clip-path="url(#A)"><path fill="#01a71c" d="M13.801 24.84l-4.52 5.191c-.066.074-.137.074-.203 0L6.77 27.598c-.043-.059-.043-.117 0-.176l.766-1c.027-.039.063-.059.109-.059s.086.02.113.059l1.289 1.461c.07.086.141.086.211 0l3.602-5.043c.02-.035.023-.066.008-.105s-.047-.051-.086-.055H.109c-.074 0-.109.035-.109.109v14.746c0 .07.035.109.109.109h13.773c.07 0 .109-.039.109-.109V24.906c.02-.062 0-.105-.062-.129s-.105 0-.129.063zM3.898 36.004a3.31 3.31 0 0 1-2.469-.883c-.051-.059-.051-.121 0-.18l.539-.77c.043-.082.105-.098.184-.051a2.52 2.52 0 0 0 1.809.723c.707 0 1.051-.332 1.051-.687 0-1.09-3.48-.34-3.48-2.664 0-1.027.863-1.879 2.293-1.879a3.23 3.23 0 0 1 2.258.773.12.12 0 0 1 0 .188l-.527.754c-.059.078-.121.086-.195.023-.484-.395-1.035-.59-1.652-.582-.551 0-.863.25-.863.621 0 .98 3.473.324 3.473 2.641 0 1.117-.789 1.973-2.422 1.973zm7.586-2.145c.004.086-.035.125-.121.121H8.18c-.027.004-.039.02-.035.047a1.2 1.2 0 0 0 .453.766c.246.195.527.281.84.254.402-.008.77-.133 1.102-.371a.1.1 0 0 1 .172.027l.387.578c.039.063.031.117-.027.16a2.74 2.74 0 0 1-1.762.566c-.32.016-.633-.031-.93-.148a2.21 2.21 0 0 1-.793-.516c-.227-.23-.402-.496-.52-.801a2.38 2.38 0 0 1-.156-.949c-.012-.316.043-.625.156-.922s.281-.559.504-.785.473-.402.762-.523.59-.176.902-.172c1.34 0 2.246 1.027 2.246 2.527zm0 0"/></g></svg>
